src/assets/IconFolderInactive.svg

<svg width="558" height="557" fill="none" xmlns="http://www.w3.org/2000/svg"><path fill-rule="evenodd" clip-rule="evenodd" d="M278.95 557c153.811 0 278.5-124.689 278.5-278.5S432.761 0 278.95 0 .45 124.689.45 278.5 125.139 557 278.95 557z" fill="#FFE2D7"/><path fill-rule="evenodd" clip-rule="evenodd" d="M402.95 231.4h-246.6v-44.55c0-8.187 6.638-14.85 14.796-14.85h59.184c28.053 0 36.013 9.346 43.036 17.592 5.761 6.762 10.318 12.108 27.659 12.108h87.129c8.158 0 14.796 6.663 14.796 14.85v14.85z" fill="#FF9084" fill-opacity=".25"/><path d="M155.9 246.7h246.6v122.947c0 8.134-6.638 14.753-14.796 14.753H170.696c-8.158 0-14.796-6.619-14.796-14.753V246.7z" fill="#fff"/></svg>

<svg width="558" height="557" viewBox="0 0 558 557" fill="none" xmlns="http://www.w3.org/2000/svg">
<g id="Group 78">
<g id="Group 59">
<path id="Oval" fill-rule="evenodd" clip-rule="evenodd" d="M278.95 557C432.761 557 557.45 432.311 557.45 278.5C557.45 124.689 432.761 0 278.95 0C125.139 0 0.450012 124.689 0.450012 278.5C0.450012 432.311 125.139 557 278.95 557Z" fill="#FFE2D7"/>
<path id="Path" fill-rule="evenodd" clip-rule="evenodd" d="M402.95 231.4H156.35V186.85C156.35 178.663 162.988 172 171.146 172H230.33C258.383 172 266.343 181.346 273.366 189.592C279.127 196.354 283.684 201.7 301.025 201.7H388.154C396.312 201.7 402.95 208.363 402.95 216.55V231.4Z" fill="#FF9084" fill-opacity="0.25"/>
<path id="Shape" d="M155.9 246.7H402.5V369.647C402.5 377.781 395.862 384.4 387.704 384.4H170.696C162.538 384.4 155.9 377.781 155.9 369.647V246.7Z" fill="white"/>
</g>
</g>
</svg>
